svgs/light/utility-pole.svg

<svg xmlns="http://www.w3.org/2000/svg" viewBox="0 0 512 512"><!--! Font Awesome Pro 6.6.0 by @fontawesome - https://fontawesome.com License - https://fontawesome.com/license (Commercial License) Copyright 2024 Fonticons, Inc. --><path d="M208 32c0-17.7 14.3-32 32-32l32 0c17.7 0 32 14.3 32 32l0 64 80 0 0-48c0-8.8 7.2-16 16-16s16 7.2 16 16l0 48 15.8 0 .3 0L480 96l0-48c0-8.8 7.2-16 16-16s16 7.2 16 16l0 48c0 17.7-14.3 32-32 32l-42.5 0L304 231.8 304 496c0 8.8-7.2 16-16 16s-16-7.2-16-16l0-271.8 0-.3 0-95.9-32 0 0 95.9 0 .3L240 496c0 8.8-7.2 16-16 16s-16-7.2-16-16l0-264.2L74.5 128 32 128C14.3 128 0 113.7 0 96L0 48c0-8.8 7.2-16 16-16s16 7.2 16 16l0 48 47.9 0 .3 0L96 96l0-48c0-8.8 7.2-16 16-16s16 7.2 16 16l0 48 80 0 0-64zm-81.4 96L208 191.3l0-63.3-81.4 0zM304 191.3L385.4 128 304 128l0 63.3zM272 32l-32 0 0 64 32 0 0-64z"/></svg>

<svg xmlns="http://www.w3.org/2000/svg" viewBox="0 0 512 512"><!--! Font Awesome Pro 6.4.2 by @fontawesome - https://fontawesome.com License - https://fontawesome.com/license (Commercial License) Copyright 2023 Fonticons, Inc. --><path d="M208 32c0-17.7 14.3-32 32-32h32c17.7 0 32 14.3 32 32V96h80V48c0-8.8 7.2-16 16-16s16 7.2 16 16V96h15.8c.1 0 .2 0 .3 0H480V48c0-8.8 7.2-16 16-16s16 7.2 16 16V96c0 17.7-14.3 32-32 32H437.5L304 231.8V496c0 8.8-7.2 16-16 16s-16-7.2-16-16V224.2c0-.1 0-.2 0-.3V128H240v95.9c0 .1 0 .2 0 .3V496c0 8.8-7.2 16-16 16s-16-7.2-16-16V231.8L74.5 128H32C14.3 128 0 113.7 0 96V48c0-8.8 7.2-16 16-16s16 7.2 16 16V96H79.9c.1 0 .2 0 .3 0H96V48c0-8.8 7.2-16 16-16s16 7.2 16 16V96h80V32zm-81.4 96L208 191.3V128H126.6zM304 191.3L385.4 128H304v63.3zM272 32l-32 0V96h32V32z"/></svg>
